X:1808
T:Off She Goes in the North
P:Mrs Seller's Favourite
C:C. Grant
R:Jig (4x32)
B:RSCDS 18-8
Z:Anselm Lingnau <anselm@strathspey.org>
M:6/8
L:1/8
K:G
B|"G"G2D DB,D|G,2D G2B|GB"Bm/F#"d "Em"g2B|"A7"g2B A2B|\
  "G"G2D DB,D|G,2D G2B|
                       GBd g2B|"D7"BAF "G"G2:|\
B|"G"dBd g2g|b2g d2B|"D/A"cBc "G/B"d2B|"Am/C"AAA "D"A2 G|
  "G"GBd g2g|b2g d2B|"Am"cBc "D7"d2B|"G"GGG G2B|\
  "G"dBd g2g|b2g d2B|
                     "Am"cBc "G/B"d2B|"Am/C"AAA "D"A2 G|\
  "G"BdB "A"cec|"G"d2B g2d|b2g d2B|"G"GG"D7"G "G"G2|]

